X:1
T:Keeper Hill
M:C|
L:1/8
R:Reel
S:ONeill \`i Dance Music of Ireland: 1001  Gems (1907), No. 709
Z:AK/Fiddlers Companion
K:A
A,2 A,C EDEF|ABAc BABc|A,2 AC EDEF|ABcA BAFA|A,2 A,C EDEF|
ABAc BABc|defd cdec|BABc BAFA||cAae cAae|cAag fedc|dBbf dBbf|
dBbf gfed|cAae cAae|cAag fedc|defg agae|dBcA BAFA||
